src/static/logos/reapp.svg

<?xml version="1.0" encoding="UTF-8" standalone="no"?>
<svg width="256px" height="338px" viewBox="0 0 256 338" version="1.1" xmlns="http://www.w3.org/2000/svg" xmlns:xlink="http://www.w3.org/1999/xlink" preserveAspectRatio="xMidYMid">
	<g>
		<path d="M63.5120941,0.566211765 C63.5120941,0.566211765 0.228894118,0.566211765 0.228894118,63.8494118 L0.228894118,285.334588 C0.228894118,285.334588 63.5120941,286.599529 63.5120941,223.003106 L63.5120941,111.310808 L63.5120941,98.6533647 L63.5120941,79.6672 C63.5120941,70.9290667 70.5957647,63.8494118 79.3298824,63.8494118 L96.4166275,63.8494118 L126.160816,63.8494118 C187.544596,63.8494118 188.809537,0.566211765 188.809537,0.566211765 L63.5120941,0.566211765 L63.5120941,0.566211765 Z" fill="#27CCF5"></path>
		<path d="M192.026102,114.940988 L192.026102,226.629271 L192.026102,239.286714 L192.026102,258.272878 C192.026102,267.011012 184.942431,274.090667 176.208314,274.090667 L159.121569,274.090667 L129.381396,274.090667 C67.9976157,274.090667 66.7286588,337.373867 66.7286588,337.373867 L192.026102,337.373867 C192.026102,337.373867 255.309302,337.373867 255.309302,274.090667 L255.309302,52.6054902 C255.309302,52.6054902 192.026102,51.340549 192.026102,114.940988 L192.026102,114.940988 Z" fill="#22E071"></path>
	</g>
</svg>

<svg width="256" height="338" xmlns="http://www.w3.org/2000/svg" preserveAspectRatio="xMidYMid"><path d="M63.512.566S.23.566.23 63.85v221.486s63.283 1.265 63.283-62.332V79.667c0-8.738 7.084-15.818 15.818-15.818h46.831C187.545 63.85 188.81.566 188.81.566H63.512z" fill="#27CCF5"/><path d="M192.026 114.941v143.332c0 8.738-7.084 15.818-15.818 15.818h-46.826c-61.384 0-62.653 63.283-62.653 63.283h125.297s63.283 0 63.283-63.283V52.605s-63.283-1.264-63.283 62.336z" fill="#22E071"/></svg>
